Catalina-dark/actions/22/stroke-cap-square.svg

<svg viewBox="0 0 22 22" xmlns="http://www.w3.org/2000/svg">
<defs>
<style id="current-color-scheme" type="text/css">.ColorScheme-Text {
        color:#dedede
      }</style>
</defs>
<path class="ColorScheme-Text" d="m6 3v1 15h1 3v-1-11h2v12h1 2 1v-13-3h-6-3-1z" fill="currentColor"/>
</svg>

<svg xmlns="http://www.w3.org/2000/svg" viewBox="0 0 22 22">
  <defs id="defs3051">
    <style type="text/css" id="current-color-scheme">
      .ColorScheme-Text {
        color:#f2f2f2
      }
      </style>
  </defs>
 <path 
     style="fill:currentColor;fill-opacity:1;stroke:none"      
	 class="ColorScheme-Text"
     d="M 6 3 L 6 4 L 6 19 L 7 19 L 10 19 L 10 18 L 10 7 L 12 7 L 12 19 L 13 19 L 15 19 L 16 19 L 16 6 L 16 3 L 10 3 L 7 3 L 6 3 z "
     />
</svg>
